lib/flags/s/CXR.svg

<svg xmlns="http://www.w3.org/2000/svg" fill="none" viewBox="0 0 16 12"><mask id="CXR_svg__a" width="16" height="12" x="0" y="0" mask-type="alpha" maskUnits="userSpaceOnUse"><path fill="#fff" d="M0 0H16V12H0z"/></mask><g fill-rule="evenodd" clip-rule="evenodd" mask="url(#CXR_svg__a)"><path fill="#5EAA22" d="M0 0H16V12H0V0Z"/><path fill="#4141DB" d="M0 0L16 12H0V0Z"/><path fill="#fff" d="M3 4.5 2.5 4.86603 2.56699 4.25 2 4 2.56699 3.75 2.5 3.13397 3 3.5 3.5 3.13397 3.43301 3.75 4 4 3.43301 4.25 3.5 4.86603 3 4.5zM2 7.5 1.5 7.86603 1.56699 7.25 1 7 1.56699 6.75 1.5 6.13397 2 6.5 2.5 6.13397 2.43301 6.75 3 7 2.43301 7.25 2.5 7.86603 2 7.5zM4 10.5 3.5 10.866 3.56699 10.25 3 10 3.56699 9.75 3.5 9.13397 4 9.5 4.5 9.13397 4.43301 9.75 5 10 4.43301 10.25 4.5 10.866 4 10.5zM4.5 5.75 4.25 5.93301 4.28349 5.625 4 5.5 4.28349 5.375 4.25 5.06699 4.5 5.25 4.75 5.06699 4.71651 5.375 5 5.5 4.71651 5.625 4.75 5.93301 4.5 5.75z"/><path fill="#FECA00" d="M10.7805 6.11199C10.5936 5.917 12.2757 5.45885 12.45 4.86808 12.681 4.35374 12.5267 3.93696 11.6536 3.57094 10.7805 3.20491 9.89818 2.49717 10.9128 2.49717 11.9274 2.49717 11.9274 2.64184 12.2 3.06859 12.4726 3.49534 13.0617 3.58675 13.0742 3.06859 13.0742 2.18569 13.1576 2.06694 12.4448 1.29936 11.7321.531773 14.2321 1.61457 14.0254 2.93047 13.8188 4.24637 13.57 3.82176 13.728 4.04265 13.8859 4.26355 14.8361 3.57784 14.7175 4.49125 14.385 5.01657 13.7257 5.7982 10.7805 6.11199zM8 8.5C9.38071 8.5 10.5 7.38071 10.5 6 10.5 4.61929 9.38071 3.5 8 3.5 6.61929 3.5 5.5 4.61929 5.5 6 5.5 7.38071 6.61929 8.5 8 8.5z"/><path fill="#548650" d="M6.47648 5.08108C6.76006 5.01785 7.14782 5.77721 7.84768 5.4924C8.54754 5.2076 8.6937 4.66387 9.02623 4.86287C9.35876 5.06187 9.40241 5.54101 9.18089 5.78183C8.95938 6.02265 8.58347 6.07962 8.58347 6.384C8.58347 6.68838 8.50976 7.77382 8.36611 7.45925C7.93531 7.10972 8.19814 6.553 7.66751 6.384C7.13688 6.215 6.8146 6.22066 6.42317 6.29197C6.03174 6.36329 6.68614 6.09607 6.82492 5.84236C7.1075 5.57051 6.34682 5.17148 6.47648 5.08108Z"/></g></svg>

<svg xmlns="http://www.w3.org/2000/svg" fill="none" viewBox="0 0 16 12"><mask id="CXR_svg__a" width="16" height="12" x="0" y="0" maskUnits="userSpaceOnUse"><path fill="#fff" d="M0 0h16v12H0z"/></mask><g fill-rule="evenodd" clip-rule="evenodd" mask="url(#CXR_svg__a)"><path fill="#5EAA22" d="M0 0h16v12H0V0z"/><path fill="#4141DB" d="M0 0l16 12H0V0z"/><path fill="#fff" d="M3 4.5l-.5.366.067-.616L2 4l.567-.25-.067-.616.5.366.5-.366-.067.616L4 4l-.567.25.067.616L3 4.5zm-1 3l-.5.366.067-.616L1 7l.567-.25-.067-.616.5.366.5-.366-.067.616L3 7l-.567.25.067.616L2 7.5zm2 3l-.5.366.067-.616L3 10l.567-.25-.067-.616.5.366.5-.366-.067.616L5 10l-.567.25.067.616L4 10.5zm.5-4.75l-.25.183.033-.308L4 5.5l.283-.125-.033-.308.25.183.25-.183-.033.308L5 5.5l-.283.125.033.308-.25-.183z"/><path fill="#FECA00" d="M10.78 6.112c-.186-.195 1.496-.653 1.67-1.244.231-.514.077-.931-.796-1.297-.873-.366-1.756-1.074-.741-1.074 1.014 0 1.014.145 1.287.572.273.426.862.518.874 0 0-.883.084-1.002-.63-1.77-.712-.767 1.788.316 1.581 1.631-.206 1.316-.455.892-.297 1.113.158.22 1.108-.465.99.448-.333.526-.992 1.307-3.938 1.621z"/><path fill="#FECA00" d="M8 8.5a2.5 2.5 0 100-5 2.5 2.5 0 000 5z"/><path fill="#548650" d="M6.476 5.081c.284-.063.672.696 1.372.411.7-.284.846-.828 1.178-.63.333.2.376.679.155.92-.222.24-.598.298-.598.602s-.073 1.39-.217 1.075c-.43-.35-.168-.906-.698-1.075-.531-.17-.853-.163-1.245-.092-.391.071.263-.196.402-.45.282-.272-.478-.67-.349-.761z"/></g></svg>
